docs/assets/images/cvv.svg

<svg width="15" height="11" viewBox="0 0 15 11" fill="none" xmlns="http://www.w3.org/2000/svg">
<rect width="14" height="10" rx="1" fill="#F0F5F9"/>
<rect width="14" height="2.35294" transform="translate(0 2.05884)" fill="#656A91"/>
<g clip-path="url(#clip0_982_22495)">
<rect x="1.3335" y="6.17645" width="11.3333" height="2.05882" rx="1.02941" fill="white"/>
<path d="M5.79673 7.44733V6.96444C5.79673 6.85409 5.70472 6.76471 5.59123 6.76471C5.47775 6.76471 5.38574 6.85409 5.38574 6.96444V7.44733C5.38574 7.55766 5.47775 7.64706 5.59123 7.64706C5.70472 7.64706 5.79673 7.55766 5.79673 7.44733Z" fill="#656A91"/>
<path d="M6.73618 7.44733V6.96444C6.73618 6.85409 6.64417 6.76471 6.53069 6.76471C6.41721 6.76471 6.3252 6.85409 6.3252 6.96444V7.44733C6.3252 7.55766 6.41721 7.64706 6.53069 7.64706C6.64417 7.64706 6.73618 7.55766 6.73618 7.44733Z" fill="#656A91"/>
<path d="M7.67515 7.44733V6.96444C7.67515 6.85409 7.58313 6.76471 7.46965 6.76471C7.35614 6.76471 7.26416 6.85409 7.26416 6.96444V7.44733C7.26416 7.55766 7.35614 7.64706 7.46965 7.64706C7.58313 7.64706 7.67515 7.55766 7.67515 7.44733Z" fill="#656A91"/>
<path d="M8.61463 7.44733V6.96444C8.61463 6.85409 8.52262 6.76471 8.40913 6.76471C8.29562 6.76471 8.20361 6.85409 8.20361 6.96444V7.44733C8.20361 7.55766 8.29562 7.64706 8.40913 7.64706C8.52262 7.64706 8.61463 7.55766 8.61463 7.44733Z" fill="#656A91"/>
<path d="M9.76904 6.96444V7.44733C9.76904 7.55766 9.86105 7.64706 9.97456 7.64706C10.088 7.64706 10.1801 7.55766 10.1801 7.44733V6.96444C10.1801 6.85409 10.088 6.76471 9.97456 6.76471C9.86105 6.76471 9.76904 6.85412 9.76904 6.96444Z" fill="#656A91"/>
<path d="M10.7085 6.96444V7.44733C10.7085 7.55766 10.8005 7.64706 10.914 7.64706C11.0275 7.64706 11.1195 7.55766 11.1195 7.44733V6.96444C11.1195 6.85409 11.0275 6.76471 10.914 6.76471C10.8005 6.76471 10.7085 6.85412 10.7085 6.96444Z" fill="#656A91"/>
<path d="M11.6475 6.96444V7.44733C11.6475 7.55766 11.7395 7.64706 11.853 7.64706C11.9664 7.64706 12.0584 7.55766 12.0584 7.44733V6.96444C12.0584 6.85409 11.9664 6.76471 11.853 6.76471C11.7395 6.76471 11.6475 6.85412 11.6475 6.96444Z" fill="#656A91"/>
<path d="M2.14739 7.64706C2.26088 7.64706 2.35289 7.55766 2.35289 7.44733V6.96444C2.35289 6.85409 2.26088 6.76471 2.14739 6.76471C2.0339 6.76471 1.94189 6.85409 1.94189 6.96444V7.44733C1.94189 7.55766 2.0339 7.64706 2.14739 7.64706Z" fill="#656A91"/>
<path d="M3.29234 7.44733V6.96444C3.29234 6.85409 3.20033 6.76471 3.08684 6.76471C2.97336 6.76471 2.88135 6.85409 2.88135 6.96444V7.44733C2.88135 7.55766 2.97336 7.64706 3.08684 7.64706C3.20033 7.64706 3.29234 7.55766 3.29234 7.44733Z" fill="#656A91"/>
<path d="M4.2313 7.44733V6.96444C4.2313 6.85409 4.13929 6.76471 4.02581 6.76471C3.91232 6.76471 3.82031 6.85409 3.82031 6.96444V7.44733C3.82031 7.55766 3.91232 7.64706 4.02581 7.64706C4.13929 7.64706 4.2313 7.55766 4.2313 7.44733Z" fill="#656A91"/>
</g>
<rect x="7.5" y="4.20587" width="6.33333" height="5.70588" rx="2.85294" fill="white"/>
<path d="M9.42871 6.19756V7.66126H9.04476V6.57957L8.6665 6.67708V6.41973L9.39339 6.19756H9.42871Z" fill="#32375E"/>
<path d="M11.0898 7.39988V7.66126H9.93229V7.4401L10.4655 6.9455C10.5126 6.89791 10.5506 6.85536 10.5794 6.81782C10.6083 6.77962 10.6292 6.74511 10.6421 6.71428C10.6558 6.68345 10.6626 6.65564 10.6626 6.63084C10.6626 6.58862 10.6554 6.55343 10.641 6.52529C10.6273 6.49647 10.6068 6.47469 10.5794 6.45994C10.5528 6.4452 10.5198 6.43783 10.4803 6.43783C10.4408 6.43783 10.4063 6.44788 10.3766 6.46799C10.347 6.48809 10.3238 6.51557 10.3071 6.55042C10.2912 6.58527 10.2832 6.62447 10.2832 6.66804H9.89811C9.89811 6.57823 9.9228 6.49613 9.97217 6.42174C10.0223 6.34735 10.0918 6.28804 10.1807 6.24381C10.2695 6.1989 10.3725 6.17645 10.4894 6.17645C10.6117 6.17645 10.7142 6.19321 10.797 6.22672C10.8798 6.26023 10.9421 6.30882 10.9839 6.37248C11.0264 6.43548 11.0477 6.51155 11.0477 6.60068C11.0477 6.65162 11.0386 6.70054 11.0203 6.74745C11.0021 6.79437 10.9759 6.84095 10.9417 6.88719C10.9076 6.93276 10.8658 6.97968 10.8164 7.02793C10.7678 7.07618 10.7123 7.12745 10.6501 7.18174L10.4359 7.39988H11.0898Z" fill="#32375E"/>
<path d="M11.6356 6.78767H11.8224C11.8703 6.78767 11.9094 6.78029 11.9398 6.76555C11.9709 6.75014 11.9941 6.72869 12.0093 6.70121C12.0245 6.67306 12.0321 6.63989 12.0321 6.60169C12.0321 6.5722 12.0248 6.54506 12.0104 6.52026C11.9967 6.49546 11.9755 6.47569 11.9466 6.46095C11.9178 6.44553 11.8809 6.43783 11.8361 6.43783C11.8057 6.43783 11.7761 6.44352 11.7472 6.45492C11.7184 6.46564 11.6944 6.48105 11.6755 6.50116C11.6572 6.52127 11.6481 6.54573 11.6481 6.57455H11.263C11.263 6.49144 11.2888 6.4204 11.3405 6.36143C11.3929 6.30178 11.4616 6.25621 11.5467 6.22471C11.6325 6.19254 11.7248 6.17645 11.8236 6.17645C11.9413 6.17645 12.0446 6.19254 12.1335 6.22471C12.2223 6.25621 12.2915 6.30312 12.3408 6.36545C12.391 6.4271 12.416 6.50351 12.416 6.59465C12.416 6.64492 12.4027 6.69216 12.3761 6.7364C12.3496 6.78063 12.3123 6.8195 12.2645 6.85301C12.2166 6.88652 12.1604 6.91299 12.0959 6.93243C12.0321 6.95119 11.9622 6.96057 11.8862 6.96057H11.6356V6.78767ZM11.6356 7.03999V6.8711H11.8862C11.969 6.8711 12.0446 6.87948 12.113 6.89624C12.1813 6.91232 12.2402 6.93645 12.2896 6.96862C12.3389 7.00079 12.3769 7.04066 12.4035 7.08825C12.4301 7.13516 12.4434 7.18911 12.4434 7.2501C12.4434 7.31846 12.4278 7.37944 12.3966 7.43306C12.3655 7.48667 12.3218 7.53191 12.2656 7.56877C12.2094 7.60563 12.1437 7.63378 12.0685 7.65322C11.9933 7.67198 11.9117 7.68136 11.8236 7.68136C11.7544 7.68136 11.6853 7.67332 11.6162 7.65724C11.5471 7.64048 11.4841 7.61502 11.4271 7.58084C11.3701 7.54599 11.3242 7.50175 11.2892 7.44814C11.255 7.39385 11.238 7.32918 11.238 7.25412H11.623C11.623 7.28495 11.6325 7.31309 11.6515 7.33856C11.6713 7.36336 11.6975 7.38313 11.7301 7.39787C11.7628 7.41262 11.7981 7.41999 11.8361 7.41999C11.8832 7.41999 11.9231 7.41228 11.9557 7.39687C11.9892 7.38078 12.0146 7.35934 12.0321 7.33253C12.0495 7.30572 12.0583 7.2759 12.0583 7.24306C12.0583 7.19347 12.0488 7.15392 12.0298 7.12444C12.0116 7.09495 11.9846 7.0735 11.9489 7.0601C11.914 7.04669 11.8718 7.03999 11.8224 7.03999H11.6356Z" fill="#32375E"/>
<rect x="7.5" y="4.20587" width="6.33333" height="5.70588" rx="2.85294" stroke="#E7428C"/>
<defs>
<clipPath id="clip0_982_22495">
<rect x="1.3335" y="6.17645" width="11.3333" height="2.05882" rx="1.02941" fill="white"/>
</clipPath>
</defs>
</svg>

<svg xmlns="http://www.w3.org/2000/svg" fill="none" viewBox="0 0 15 11"><rect width="14" height="10" fill="#F0F5F9" rx="1"/><path fill="#656A91" d="M0 0H14V2.353H0z" transform="translate(0 2.059)"/><g clip-path="url(#a)"><rect width="11.333" height="2.059" x="1.333" y="6.176" fill="#fff" rx="1.029"/><path fill="#656A91" d="M5.797 7.447v-.483c0-.11-.092-.2-.206-.2a.203.203 0 0 0-.205.2v.483c0 .11.092.2.205.2.114 0 .206-.09.206-.2zM6.736 7.447v-.483c0-.11-.092-.2-.205-.2a.203.203 0 0 0-.206.2v.483c0 .11.092.2.206.2.113 0 .205-.09.205-.2zM7.675 7.447v-.483c0-.11-.092-.2-.205-.2a.203.203 0 0 0-.206.2v.483c0 .11.092.2.206.2.113 0 .205-.09.205-.2zM8.615 7.447v-.483c0-.11-.092-.2-.206-.2a.203.203 0 0 0-.205.2v.483c0 .11.092.2.205.2.114 0 .206-.09.206-.2zM9.769 6.964v.483c0 .11.092.2.206.2.113 0 .205-.09.205-.2v-.483c0-.11-.092-.2-.205-.2a.203.203 0 0 0-.206.2zM10.709 6.964v.483c0 .11.091.2.205.2.114 0 .206-.09.206-.2v-.483c0-.11-.092-.2-.206-.2a.203.203 0 0 0-.205.2zM11.648 6.964v.483c0 .11.091.2.205.2.113 0 .205-.09.205-.2v-.483c0-.11-.092-.2-.205-.2a.203.203 0 0 0-.205.2zM2.147 7.647c.114 0 .206-.09.206-.2v-.483c0-.11-.092-.2-.206-.2a.203.203 0 0 0-.205.2v.483c0 .11.092.2.205.2zM3.292 7.447v-.483c0-.11-.092-.2-.205-.2a.203.203 0 0 0-.206.2v.483c0 .11.092.2.206.2.113 0 .205-.09.205-.2zM4.231 7.447v-.483c0-.11-.092-.2-.205-.2a.203.203 0 0 0-.206.2v.483c0 .11.092.2.206.2.113 0 .205-.09.205-.2z"/></g><rect width="6.333" height="5.706" x="7.5" y="4.206" fill="#fff" rx="2.853"/><path fill="#32375E" d="M9.429 6.198V7.66h-.384V6.58l-.379.097V6.42l.727-.222h.036zM11.09 7.4v.261H9.932v-.22l.534-.495c.047-.048.085-.09.113-.128a.493.493 0 0 0 .063-.104.208.208 0 0 0 .02-.083.23.23 0 0 0-.021-.106.14.14 0 0 0-.062-.065.202.202 0 0 0-.099-.022.18.18 0 0 0-.103.03.204.204 0 0 0-.07.082.28.28 0 0 0-.024.118h-.385c0-.09.025-.172.074-.246a.53.53 0 0 1 .209-.178.675.675 0 0 1 .308-.068c.123 0 .225.017.308.05a.39.39 0 0 1 .187.146c.042.063.064.14.064.229a.4.4 0 0 1-.028.146.602.602 0 0 1-.078.14 1.226 1.226 0 0 1-.126.14c-.048.05-.104.1-.166.155l-.214.218h.654zM11.636 6.788h.186a.27.27 0 0 0 .118-.022.156.156 0 0 0 .07-.065.206.206 0 0 0 .022-.1.16.16 0 0 0-.022-.08.146.146 0 0 0-.063-.06.233.233 0 0 0-.11-.023.24.24 0 0 0-.09.017.185.185 0 0 0-.072.046.105.105 0 0 0-.027.074h-.385c0-.084.026-.155.078-.214a.498.498 0 0 1 .206-.136.91.91 0 0 1 .587 0 .447.447 0 0 1 .207.14c.05.062.075.139.075.23a.27.27 0 0 1-.04.141.385.385 0 0 1-.111.117.588.588 0 0 1-.17.08.741.741 0 0 1-.209.028h-.25v-.173zm0 .252v-.169h.25c.083 0 .159.008.227.025.068.016.127.04.177.073a.322.322 0 0 1 .154.281c0 .068-.016.13-.047.183a.405.405 0 0 1-.131.136.656.656 0 0 1-.197.084 1.01 1.01 0 0 1-.453.004.674.674 0 0 1-.189-.076.43.43 0 0 1-.138-.133.356.356 0 0 1-.051-.194h.385c0 .031.01.06.029.085.02.024.046.044.078.059a.255.255 0 0 0 .106.022.279.279 0 0 0 .12-.023.183.183 0 0 0 .076-.064.16.16 0 0 0 .026-.09c0-.05-.01-.09-.028-.119a.156.156 0 0 0-.081-.064.354.354 0 0 0-.127-.02h-.186z"/><rect width="6.333" height="5.706" x="7.5" y="4.206" stroke="#E7428C" rx="2.853"/><defs><clipPath id="a"><rect width="11.333" height="2.059" x="1.333" y="6.176" fill="#fff" rx="1.029"/></clipPath></defs></svg>
